communes/6485.svg

<?xml version="1.0" encoding="UTF-8" standalone="no"?>
<!-- Created with Inkscape (http://www.inkscape.org/) -->

<svg
   xmlns:dc="http://purl.org/dc/elements/1.1/"
   xmlns:cc="http://creativecommons.org/ns#"
   xmlns:rdf="http://www.w3.org/1999/02/22-rdf-syntax-ns#"
   xmlns:svg="http://www.w3.org/2000/svg"
   xmlns="http://www.w3.org/2000/svg"
   xmlns:sodipodi="http://sodipodi.sourceforge.net/DTD/sodipodi-0.dtd"
   xmlns:inkscape="http://www.inkscape.org/namespaces/inkscape"
   version="1.0"
   width="208.86046"
   height="244.65999"
   id="svg2780"
   inkscape:version="0.92.5 (2060ec1f9f, 2020-04-08)"
   sodipodi:docname="base.svg">
  <metadata
     id="metadata27">
    <rdf:RDF>
      <cc:Work
         rdf:about="">
        <dc:format>image/svg+xml</dc:format>
        <dc:type
           rdf:resource="http://purl.org/dc/dcmitype/StillImage" />
        <dc:title></dc:title>
      </cc:Work>
    </rdf:RDF>
  </metadata>
  <sodipodi:namedview
     pagecolor="#ffffff"
     bordercolor="#666666"
     borderopacity="1"
     objecttolerance="10"
     gridtolerance="10"
     guidetolerance="10"
     inkscape:pageopacity="0"
     inkscape:pageshadow="2"
     inkscape:window-width="3287"
     inkscape:window-height="1417"
     id="namedview25"
     showgrid="false"
     inkscape:zoom="0.50000001"
     inkscape:cx="-1102.385"
     inkscape:cy="9.2131136"
     inkscape:window-x="-8"
     inkscape:window-y="-8"
     inkscape:window-maximized="1"
     inkscape:current-layer="svg2780"
     inkscape:measure-start="104.255,149.787"
     inkscape:measure-end="104.255,126.383"
     showguides="true"
     inkscape:object-paths="true"
     inkscape:snap-intersection-paths="true" />
  <defs
     id="defs2782" />
  <path
     id="path4212-6"
     style="fill:#cc2918;fill-opacity:1;fill-rule:evenodd;stroke:#000000;stroke-width:1.99999988;stroke-linecap:butt;stroke-miterlimit:4;stroke-dashoffset:0;stroke-opacity:1"
     d="M 1.000033,149.10355 V 0.99999834 c 68.953472,0 137.906947,0 206.860417,0 V 149.10355 c 0,51.44535 -51.71515,94.56785 -103.43021,94.56785 -51.71506,0 -103.430207,-43.1225 -103.430207,-94.56785 z"
     inkscape:connector-curvature="0"
     sodipodi:nodetypes="sccscs" />
  <path
     style="opacity:1;fill:#feeb00;fill-opacity:1;stroke:#000000;stroke-width:1;stroke-miterlimit:2;stroke-dasharray:none;stroke-dashoffset:4.57999992;stroke-opacity:1"
     d="M 69.953502,0.99999834 H 138.90697 V 237.4616 c -22.91124,8.23339 -45.894911,8.32597 -68.953468,1e-5 z"
     id="path16295"
     inkscape:connector-curvature="0"
     sodipodi:nodetypes="ccccc" />
  <path
     id="path16223-0-5"
     style="opacity:1;fill:#000000;fill-opacity:1;stroke:#000000;stroke-width:1;stroke-miterlimit:2;stroke-dasharray:none;stroke-dashoffset:4.57999992;stroke-opacity:1"
     d="m 104.43024,198.29836 34.47673,39.16324 v -39.45967 l -34.47673,-39.16324 -34.476738,39.16326 v 39.45966 z"
     inkscape:connector-curvature="0"
     sodipodi:nodetypes="ccccccc" />
  <path
     id="path16223-0-5-4"
     style="opacity:1;fill:#000000;fill-opacity:1;stroke:#000000;stroke-width:1;stroke-miterlimit:2;stroke-dasharray:none;stroke-dashoffset:4.57999992;stroke-opacity:1"
     d="m 104.43024,119.379 34.47673,39.16324 V 119.08257 L 104.43024,79.919329 69.9535,119.08259 v 39.45966 z"
     inkscape:connector-curvature="0"
     sodipodi:nodetypes="ccccccc" />
  <path
     id="path16223-0-5-3"
     style="opacity:1;fill:#000000;fill-opacity:1;stroke:#000000;stroke-width:1;stroke-miterlimit:2;stroke-dasharray:none;stroke-dashoffset:4.57999992;stroke-opacity:1"
     d="m 104.43024,40.459668 34.47673,39.16324 V 40.163238 L 104.43024,0.99999834 69.9535,40.163258 v 39.45966 z"
     inkscape:connector-curvature="0"
     sodipodi:nodetypes="ccccccc" />
  <path
     id="path4212-6-0"
     style="fill:none;fill-opacity:1;fill-rule:evenodd;stroke:#000000;stroke-width:1.99999988;stroke-linecap:butt;stroke-miterlimit:4;stroke-dashoffset:0;stroke-opacity:1"
     d="M 1.000033,149.10355 V 0.99999834 c 68.953472,0 137.906947,0 206.860417,0 V 149.10355 c 0,51.44535 -51.71515,94.56785 -103.43021,94.56785 -51.71506,0 -103.430207,-43.1225 -103.430207,-94.56785 z"
     inkscape:connector-curvature="0"
     sodipodi:nodetypes="sccscs" />
</svg>

<?xml version="1.0" encoding="UTF-8"?>
<svg version="1.0" viewBox="0 0 208.86 244.66" xmlns="http://www.w3.org/2000/svg" xmlns:cc="http://creativecommons.org/ns#" xmlns:dc="http://purl.org/dc/elements/1.1/" xmlns:rdf="http://www.w3.org/1999/02/22-rdf-syntax-ns#">
<metadata>
<rdf:RDF>
<cc:Work rdf:about="">
<dc:format>image/svg+xml</dc:format>
<dc:type rdf:resource="http://purl.org/dc/dcmitype/StillImage"/>
<dc:title/>
</cc:Work>
</rdf:RDF>
</metadata>
<path d="m1 149.1v-148.1h206.86v148.1c0 51.445-51.715 94.568-103.43 94.568s-103.43-43.122-103.43-94.568z" fill="#cc2918" fill-rule="evenodd" stroke="#000" stroke-width="2"/>
<path d="m69.954 1h68.953v236.46c-22.911 8.2334-45.895 8.326-68.953 1e-5z" fill="#feeb00" stroke="#000" stroke-dashoffset="4.58" stroke-miterlimit="2"/>
<path d="m104.43 198.3 34.477 39.163v-39.46l-34.477-39.163-34.477 39.163v39.46z" stroke="#000" stroke-dashoffset="4.58" stroke-miterlimit="2"/>
<path d="m104.43 119.38 34.477 39.163v-39.46l-34.477-39.163-34.477 39.163v39.46z" stroke="#000" stroke-dashoffset="4.58" stroke-miterlimit="2"/>
<path d="m104.43 40.46 34.477 39.163v-39.46l-34.477-39.163-34.477 39.163v39.46z" stroke="#000" stroke-dashoffset="4.58" stroke-miterlimit="2"/>
<path d="m1 149.1v-148.1h206.86v148.1c0 51.445-51.715 94.568-103.43 94.568s-103.43-43.122-103.43-94.568z" fill="none" stroke="#000" stroke-width="2"/>
</svg>
